**kern	**kern	**dynam
*part1	*part1	*part1
*staff2	*staff1	*
*I"Piano	*	*
*clefF4	*clefG2	*
*k[b-]	*k[b-]	*
*M3/4	*M3/4	*
=1	=1	=1
!	!	!LO:DY:a
4r	4d	p
=	=	=
8r	2d	.
(8B-L	.	.
8A	.	.
8F	.	.
8E	4d	.
8DJ)	.	.
=	=	=
8r	2d 2f	.
(8BB-L	.	.
8AA	.	.
8FF	.	.
8EE	4d 4f	.
8DDJ)	.	.
=	=	=
8r	2d 2e	.
(8cL	.	.
8B-	.	.
8G	.	.
8F	4d 4e	.
8EJ)	.	.
=	=	=
8r	2d 2e 2a	.
(8CL	.	.
8BB-	.	.
8GG	.	.
8FF	4d 4g 4b-	.
8EEJ)	.	.
=	=	=
8r	2g 2a	.
(8dL	.	.
8c#X	.	.
8EJ)	.	.
8r	4g 4b-	.
8AA	.	.
=	=	=
8r	4e 4a	.
(8c#XL	.	.
8Bn	4d 4g#X	.
8DJ)	.	.
8r	4c#X 4gn	.
8AA	.	.
=	=	=
*-	*-	*-
!!!system-decoration: {(s1,s2)}
